X:52
T:Jigg,A. TJD.52
M:6/8
L:1/8
Q:1/4=120
S:T.J.Dixon MS2, Lincolnshire, early 19thC
R:jig
C:Miller
A:Lincolnshire, Holton le Moor
Z:vmp.R.Greig2010
K:G
G2G (GF).G|A2AA3|B2B Bcd|edc BcA|!
G2G (GF).G|A2A A3|BcB AGF|G2GG3:|!
ddd ddd|dgbd3|ccc ccc|cfac3|!
BBB Bcd|AAA ABc|BAG dcB|B3″^Da Capo”A3|]

